bernoullicharts/arcsin_x_sqrt_1-x_x_-1_bits.svg

<?xml version="1.0" encoding="utf-8" standalone="no"?>
<!DOCTYPE svg PUBLIC "-//W3C//DTD SVG 1.1//EN"
  "http://www.w3.org/Graphics/SVG/1.1/DTD/svg11.dtd">
<!-- Created with matplotlib (https://matplotlib.org/) -->
<svg height="345.6pt" version="1.1" viewBox="0 0 460.8 345.6" width="460.8pt" xmlns="http://www.w3.org/2000/svg" xmlns:xlink="http://www.w3.org/1999/xlink">
 <defs>
  <style type="text/css">
*{stroke-linecap:butt;stroke-linejoin:round;}
  </style>
 </defs>
 <g id="figure_1">
  <g id="patch_1">
   <path d="M 0 345.6 
L 460.8 345.6 
L 460.8 0 
L 0 0 
z
" style="fill:#ffffff;"/>
  </g>
  <g id="axes_1">
   <g id="patch_2">
    <path d="M 57.6 307.584 
L 414.72 307.584 
L 414.72 41.472 
L 57.6 41.472 
z
" style="fill:#ffffff;"/>
   </g>
   <g id="matplotlib.axis_1">
    <g id="xtick_1">
     <g id="line2d_1">
      <defs>
       <path d="M 0 0 
L 0 3.5 
" id="mdfc8b449a2" style="stroke:#000000;stroke-width:0.8;"/>
      </defs>
      <g>
       <use style="stroke:#000000;stroke-width:0.8;" x="73.800255" xlink:href="#mdfc8b449a2" y="307.584"/>
      </g>
     </g>
     <g id="text_1">
      <text style="font-family:DejaVu Sans;font-size:10px;font-style:normal;font-weight:normal;text-anchor:middle;" transform="rotate(-0, 73.800255, 322.182437)" x="73.800255" y="322.182437">0.0</text>
     </g>
    </g>
    <g id="xtick_2">
     <g id="line2d_2">
      <g>
       <use style="stroke:#000000;stroke-width:0.8;" x="138.744153" xlink:href="#mdfc8b449a2" y="307.584"/>
      </g>
     </g>
     <g id="text_2">
      <text style="font-family:DejaVu Sans;font-size:10px;font-style:normal;font-weight:normal;text-anchor:middle;" transform="rotate(-0, 138.744153, 322.182437)" x="138.744153" y="322.182437">0.2</text>
     </g>
    </g>
    <g id="xtick_3">
     <g id="line2d_3">
      <g>
       <use style="stroke:#000000;stroke-width:0.8;" x="203.688051" xlink:href="#mdfc8b449a2" y="307.584"/>
      </g>
     </g>
     <g id="text_3">
      <text style="font-family:DejaVu Sans;font-size:10px;font-style:normal;font-weight:normal;text-anchor:middle;" transform="rotate(-0, 203.688051, 322.182437)" x="203.688051" y="322.182437">0.4</text>
     </g>
    </g>
    <g id="xtick_4">
     <g id="line2d_4">
      <g>
       <use style="stroke:#000000;stroke-width:0.8;" x="268.631949" xlink:href="#mdfc8b449a2" y="307.584"/>
      </g>
     </g>
     <g id="text_4">
      <text style="font-family:DejaVu Sans;font-size:10px;font-style:normal;font-weight:normal;text-anchor:middle;" transform="rotate(-0, 268.631949, 322.182437)" x="268.631949" y="322.182437">0.6</text>
     </g>
    </g>
    <g id="xtick_5">
     <g id="line2d_5">
      <g>
       <use style="stroke:#000000;stroke-width:0.8;" x="333.575847" xlink:href="#mdfc8b449a2" y="307.584"/>
      </g>
     </g>
     <g id="text_5">
      <text style="font-family:DejaVu Sans;font-size:10px;font-style:normal;font-weight:normal;text-anchor:middle;" transform="rotate(-0, 333.575847, 322.182437)" x="333.575847" y="322.182437">0.8</text>
     </g>
    </g>
    <g id="xtick_6">
     <g id="line2d_6">
      <g>
       <use style="stroke:#000000;stroke-width:0.8;" x="398.519745" xlink:href="#mdfc8b449a2" y="307.584"/>
      </g>
     </g>
     <g id="text_6">
      <text style="font-family:DejaVu Sans;font-size:10px;font-style:normal;font-weight:normal;text-anchor:middle;" transform="rotate(-0, 398.519745, 322.182437)" x="398.519745" y="322.182437">1.0</text>
     </g>
    </g>
    <g id="text_7">
     <text style="font-family:DejaVu Sans;font-size:10px;font-style:normal;font-weight:normal;text-anchor:middle;" transform="rotate(-0, 236.16, 335.860562)" x="236.16" y="335.860562">Probability</text>
    </g>
   </g>
   <g id="matplotlib.axis_2">
    <g id="ytick_1">
     <g id="line2d_7">
      <defs>
       <path d="M 0 0 
L -3.5 0 
" id="me369323e6e" style="stroke:#000000;stroke-width:0.8;"/>
      </defs>
      <g>
       <use style="stroke:#000000;stroke-width:0.8;" x="57.6" xlink:href="#me369323e6e" y="282.245383"/>
      </g>
     </g>
     <g id="text_8">
      <text style="font-family:DejaVu Sans;font-size:10px;font-style:normal;font-weight:normal;text-anchor:end;" transform="rotate(-0, 50.6, 286.044602)" x="50.6" y="286.044602">15.5</text>
     </g>
    </g>
    <g id="ytick_2">
     <g id="line2d_8">
      <g>
       <use style="stroke:#000000;stroke-width:0.8;" x="57.6" xlink:href="#me369323e6e" y="241.871551"/>
      </g>
     </g>
     <g id="text_9">
      <text style="font-family:DejaVu Sans;font-size:10px;font-style:normal;font-weight:normal;text-anchor:end;" transform="rotate(-0, 50.6, 245.67077)" x="50.6" y="245.67077">16.0</text>
     </g>
    </g>
    <g id="ytick_3">
     <g id="line2d_9">
      <g>
       <use style="stroke:#000000;stroke-width:0.8;" x="57.6" xlink:href="#me369323e6e" y="201.49772"/>
      </g>
     </g>
     <g id="text_10">
      <text style="font-family:DejaVu Sans;font-size:10px;font-style:normal;font-weight:normal;text-anchor:end;" transform="rotate(-0, 50.6, 205.296938)" x="50.6" y="205.296938">16.5</text>
     </g>
    </g>
    <g id="ytick_4">
     <g id="line2d_10">
      <g>
       <use style="stroke:#000000;stroke-width:0.8;" x="57.6" xlink:href="#me369323e6e" y="161.123888"/>
      </g>
     </g>
     <g id="text_11">
      <text style="font-family:DejaVu Sans;font-size:10px;font-style:normal;font-weight:normal;text-anchor:end;" transform="rotate(-0, 50.6, 164.923107)" x="50.6" y="164.923107">17.0</text>
     </g>
    </g>
    <g id="ytick_5">
     <g id="line2d_11">
      <g>
       <use style="stroke:#000000;stroke-width:0.8;" x="57.6" xlink:href="#me369323e6e" y="120.750056"/>
      </g>
     </g>
     <g id="text_12">
      <text style="font-family:DejaVu Sans;font-size:10px;font-style:normal;font-weight:normal;text-anchor:end;" transform="rotate(-0, 50.6, 124.549275)" x="50.6" y="124.549275">17.5</text>
     </g>
    </g>
    <g id="ytick_6">
     <g id="line2d_12">
      <g>
       <use style="stroke:#000000;stroke-width:0.8;" x="57.6" xlink:href="#me369323e6e" y="80.376224"/>
      </g>
     </g>
     <g id="text_13">
      <text style="font-family:DejaVu Sans;font-size:10px;font-style:normal;font-weight:normal;text-anchor:end;" transform="rotate(-0, 50.6, 84.175443)" x="50.6" y="84.175443">18.0</text>
     </g>
    </g>
    <g id="text_14">
     <text style="font-family:DejaVu Sans;font-size:10px;font-style:normal;font-weight:normal;text-anchor:middle;" transform="rotate(-90, 22.254687, 174.528)" x="22.254687" y="174.528">Average Bits Consumed Per Call</text>
    </g>
   </g>
   <g id="line2d_13">
    <path clip-path="url(#pd6b1157c83)" d="M 73.832727 130.601271 
L 77.112066 154.179589 
L 80.391405 132.37772 
L 83.670744 124.948935 
L 86.950083 151.272673 
L 90.229421 204.24314 
L 93.50876 175.173981 
L 96.788099 162.577346 
L 100.067438 191.969495 
L 103.346777 184.863701 
L 106.626116 205.050617 
L 109.905455 204.404636 
L 113.184793 174.528 
L 116.464132 142.713421 
L 119.743471 224.430056 
L 123.02281 195.360897 
L 126.302149 209.410991 
L 129.581488 244.132486 
L 132.860826 187.609121 
L 136.140165 207.957533 
L 139.419504 177.434916 
L 142.698843 191.485009 
L 145.978182 196.65286 
L 149.257521 235.734729 
L 152.53686 160.639402 
L 155.816198 224.914542 
L 159.095537 249.300336 
L 162.374876 239.449121 
L 165.654215 256.406131 
L 168.933554 210.218467 
L 172.212893 216.35529 
L 175.492231 219.908187 
L 178.77157 216.032299 
L 182.050909 220.069682 
L 185.330248 267.710804 
L 188.609587 238.80314 
L 191.888926 251.399776 
L 195.168264 190.354542 
L 198.447603 242.679028 
L 201.726942 215.386318 
L 205.006281 240.095103 
L 208.28562 226.045009 
L 211.564959 265.77286 
L 214.844298 238.318654 
L 218.123636 245.424449 
L 221.402975 233.95828 
L 224.682314 240.256598 
L 227.961653 260.120523 
L 231.240992 243.325009 
L 234.520331 245.908935 
L 237.799669 267.872299 
L 241.079008 278.369495 
L 244.358347 248.49286 
L 247.637686 224.591551 
L 250.917025 261.896972 
L 254.196364 295.488 
L 257.475702 244.616972 
L 260.755041 257.375103 
L 264.03438 263.834916 
L 267.313719 211.348935 
L 270.593058 238.157159 
L 273.872397 293.550056 
L 277.151736 266.741832 
L 280.431074 223.299589 
L 283.710413 216.35529 
L 286.989752 239.610617 
L 290.269091 250.107813 
L 293.54843 233.63529 
L 296.827769 284.667813 
L 300.107107 237.834168 
L 303.386446 275.301084 
L 306.665785 238.641645 
L 309.945124 274.332112 
L 313.224463 225.560523 
L 316.503802 215.224822 
L 319.78314 277.885009 
L 323.062479 277.723514 
L 326.341818 280.791925 
L 329.621157 225.076037 
L 332.900496 240.579589 
L 336.179835 167.26071 
L 339.459174 244.455477 
L 342.738512 247.846879 
L 346.017851 166.453234 
L 349.29719 248.331364 
L 352.576529 196.65286 
L 355.855868 211.187439 
L 359.135207 200.528748 
L 362.414545 168.714168 
L 365.693884 206.504075 
L 368.973223 146.266318 
L 372.252562 195.037907 
L 375.531901 191.808 
L 378.81124 153.372112 
L 382.090579 103.631551 
L 385.369917 176.788935 
L 388.649256 53.568 
L 391.928595 169.68314 
L 395.207934 92.488374 
L 398.487273 78.11529 
" style="fill:none;stroke:#1f77b4;stroke-linecap:square;stroke-width:1.5;"/>
   </g>
   <g id="patch_3">
    <path d="M 57.6 307.584 
L 57.6 41.472 
" style="fill:none;stroke:#000000;stroke-linecap:square;stroke-linejoin:miter;stroke-width:0.8;"/>
   </g>
   <g id="patch_4">
    <path d="M 414.72 307.584 
L 414.72 41.472 
" style="fill:none;stroke:#000000;stroke-linecap:square;stroke-linejoin:miter;stroke-width:0.8;"/>
   </g>
   <g id="patch_5">
    <path d="M 57.6 307.584 
L 414.72 307.584 
" style="fill:none;stroke:#000000;stroke-linecap:square;stroke-linejoin:miter;stroke-width:0.8;"/>
   </g>
   <g id="patch_6">
    <path d="M 57.6 41.472 
L 414.72 41.472 
" style="fill:none;stroke:#000000;stroke-linecap:square;stroke-linejoin:miter;stroke-width:0.8;"/>
   </g>
   <g id="text_15">
    <text style="font-family:DejaVu Sans;font-size:12px;font-style:normal;font-weight:normal;text-anchor:middle;" transform="rotate(-0, 236.16, 35.472)" x="236.16" y="35.472">Avg. Bits Consumed by arcsin(x)+sqrt(1-x*x)-1 Algorithm</text>
   </g>
   <g id="legend_1">
    <g id="patch_7">
     <path d="M 64.6 64.150125 
L 212.709375 64.150125 
Q 214.709375 64.150125 214.709375 62.150125 
L 214.709375 48.472 
Q 214.709375 46.472 212.709375 46.472 
L 64.6 46.472 
Q 62.6 46.472 62.6 48.472 
L 62.6 62.150125 
Q 62.6 64.150125 64.6 64.150125 
z
" style="fill:#ffffff;opacity:0.8;stroke:#cccccc;stroke-linejoin:miter;"/>
    </g>
    <g id="line2d_14">
     <path d="M 66.6 54.570438 
L 86.6 54.570438 
" style="fill:none;stroke:#1f77b4;stroke-linecap:square;stroke-width:1.5;"/>
    </g>
    <g id="line2d_15"/>
    <g id="text_16">
     <text style="font-family:DejaVu Sans;font-size:10px;font-style:normal;font-weight:normal;text-anchor:start;" transform="rotate(-0, 94.6, 58.070438)" x="94.6" y="58.070438">arcsin(x)+sqrt(1-x*x)-1</text>
    </g>
   </g>
  </g>
 </g>
 <defs>
  <clipPath id="pd6b1157c83">
   <rect height="266.112" width="357.12" x="57.6" y="41.472"/>
  </clipPath>
 </defs>
</svg>

<svg height="460.8" viewBox="0 0 460.8 345.6" width="614.4" xmlns="http://www.w3.org/2000/svg" xmlns:xlink="http://www.w3.org/1999/xlink"><defs><style>*{stroke-linecap:butt;stroke-linejoin:round}</style></defs><g id="figure_1"><path d="M0 345.6h460.8V0H0z" fill="#fff" id="patch_1"/><g id="axes_1"><path d="M57.6 307.584h357.12V41.472H57.6z" fill="#fff" id="patch_2"/><g id="matplotlib.axis_1"><g id="xtick_1"><g id="line2d_1"><defs><path d="M0 0v3.5" id="mdfc8b449a2" stroke="#000" stroke-width=".8"/></defs><use x="73.8" xlink:href="#mdfc8b449a2" y="307.584" stroke="#000" stroke-width=".8"/></g><text x="73.8" y="322.182" font-family="DejaVu Sans" font-size="10" font-weight="400" text-anchor="middle" id="text_1">0.0</text></g><g id="xtick_2"><use x="138.744" xlink:href="#mdfc8b449a2" y="307.584" stroke="#000" stroke-width=".8" id="line2d_2"/><text x="138.744" y="322.182" font-family="DejaVu Sans" font-size="10" font-weight="400" text-anchor="middle" id="text_2">0.2</text></g><g id="xtick_3"><use x="203.688" xlink:href="#mdfc8b449a2" y="307.584" stroke="#000" stroke-width=".8" id="line2d_3"/><text x="203.688" y="322.182" font-family="DejaVu Sans" font-size="10" font-weight="400" text-anchor="middle" id="text_3">0.4</text></g><g id="xtick_4"><use x="268.632" xlink:href="#mdfc8b449a2" y="307.584" stroke="#000" stroke-width=".8" id="line2d_4"/><text x="268.632" y="322.182" font-family="DejaVu Sans" font-size="10" font-weight="400" text-anchor="middle" id="text_4">0.6</text></g><g id="xtick_5"><use x="333.576" xlink:href="#mdfc8b449a2" y="307.584" stroke="#000" stroke-width=".8" id="line2d_5"/><text x="333.576" y="322.182" font-family="DejaVu Sans" font-size="10" font-weight="400" text-anchor="middle" id="text_5">0.8</text></g><g id="xtick_6"><use x="398.52" xlink:href="#mdfc8b449a2" y="307.584" stroke="#000" stroke-width=".8" id="line2d_6"/><text x="398.52" y="322.182" font-family="DejaVu Sans" font-size="10" font-weight="400" text-anchor="middle" id="text_6">1.0</text></g><text x="236.16" y="335.861" font-family="DejaVu Sans" font-size="10" font-weight="400" text-anchor="middle" id="text_7">Probability</text></g><g id="matplotlib.axis_2"><g id="ytick_1"><g id="line2d_7"><defs><path d="M0 0h-3.5" id="me369323e6e" stroke="#000" stroke-width=".8"/></defs><use x="57.6" xlink:href="#me369323e6e" y="282.245" stroke="#000" stroke-width=".8"/></g><text x="50.6" y="286.045" font-family="DejaVu Sans" font-size="10" font-weight="400" text-anchor="end" id="text_8">15.5</text></g><g id="ytick_2"><use x="57.6" xlink:href="#me369323e6e" y="241.872" stroke="#000" stroke-width=".8" id="line2d_8"/><text x="50.6" y="245.671" font-family="DejaVu Sans" font-size="10" font-weight="400" text-anchor="end" id="text_9">16.0</text></g><g id="ytick_3"><use x="57.6" xlink:href="#me369323e6e" y="201.498" stroke="#000" stroke-width=".8" id="line2d_9"/><text x="50.6" y="205.297" font-family="DejaVu Sans" font-size="10" font-weight="400" text-anchor="end" id="text_10">16.5</text></g><g id="ytick_4"><use x="57.6" xlink:href="#me369323e6e" y="161.124" stroke="#000" stroke-width=".8" id="line2d_10"/><text x="50.6" y="164.923" font-family="DejaVu Sans" font-size="10" font-weight="400" text-anchor="end" id="text_11">17.0</text></g><g id="ytick_5"><use x="57.6" xlink:href="#me369323e6e" y="120.75" stroke="#000" stroke-width=".8" id="line2d_11"/><text x="50.6" y="124.549" font-family="DejaVu Sans" font-size="10" font-weight="400" text-anchor="end" id="text_12">17.5</text></g><g id="ytick_6"><use x="57.6" xlink:href="#me369323e6e" y="80.376" stroke="#000" stroke-width=".8" id="line2d_12"/><text x="50.6" y="84.175" font-family="DejaVu Sans" font-size="10" font-weight="400" text-anchor="end" id="text_13">18.0</text></g><text transform="rotate(-90 22.255 174.528)" x="22.255" y="174.528" font-family="DejaVu Sans" font-size="10" font-weight="400" text-anchor="middle" id="text_14">Average Bits Consumed Per Call</text></g><path clip-path="url(#pd6b1157c83)" d="M73.833 130.601l3.28 23.579 3.278-21.802 3.28-7.43 3.28 26.325 3.278 52.97 3.28-29.069 3.28-12.597 3.278 29.392 3.28-7.105 3.28 20.187 3.278-.646 3.28-29.877 3.28-31.815 3.278 81.717 3.28-29.07 3.28 14.051 3.278 34.721 3.28-56.523 3.28 20.349 3.279-30.523 3.279 14.05 3.28 5.168 3.279 39.082 3.279-75.096 3.28 64.276 3.279 24.385 3.279-9.85 3.28 16.956 3.279-46.188 3.279 6.137 3.28 3.553 3.279-3.876 3.279 4.038 3.28 47.64 3.279-28.907 3.279 12.597 3.28-61.045 3.279 52.324 3.279-27.293 3.28 24.71 3.279-14.051 3.279 39.728 3.28-27.454 3.279 7.105 3.279-11.466 3.28 6.299 3.279 19.864 3.279-16.796 3.28 2.584 3.279 21.963 3.279 10.497 3.28-29.876 3.279-23.901 3.279 37.305 3.28 33.591 3.279-50.871 3.279 12.758 3.28 6.46 3.279-52.486 3.28 26.808 3.278 55.393 3.28-26.808 3.28-43.442 3.278-6.945 3.28 23.256 3.28 10.497 3.278-16.473 3.28 51.033 3.28-46.834 3.278 37.467 3.28-36.66 3.28 35.691 3.278-48.771 3.28-10.336 3.28 62.66 3.278-.161 3.28 3.068 3.28-55.716 3.278 15.504 3.28-73.32 3.28 77.195 3.279 3.392 3.279-81.394 3.28 81.878 3.279-51.678 3.279 14.534 3.28-10.658 3.279-31.815 3.279 37.79 3.28-60.238 3.279 48.772 3.279-3.23 3.28-38.436 3.279-49.74 3.279 73.157 3.28-123.221 3.279 116.115 3.279-77.195 3.28-14.373" fill="none" stroke="#1f77b4" stroke-linecap="square" stroke-width="1.5" id="line2d_13"/><path d="M57.6 307.584V41.472" fill="none" stroke="#000" stroke-linecap="square" stroke-width=".8" id="patch_3"/><path d="M414.72 307.584V41.472" fill="none" stroke="#000" stroke-linecap="square" stroke-width=".8" id="patch_4"/><path d="M57.6 307.584h357.12" fill="none" stroke="#000" stroke-linecap="square" stroke-width=".8" id="patch_5"/><path d="M57.6 41.472h357.12" fill="none" stroke="#000" stroke-linecap="square" stroke-width=".8" id="patch_6"/><text x="236.16" y="35.472" font-family="DejaVu Sans" font-size="12" font-weight="400" text-anchor="middle" id="text_15">Avg. Bits Consumed by arcsin(x)+sqrt(1-x*x)-1 Algorithm</text><g id="legend_1"><path d="M64.6 64.15h148.11q2 0 2-2V48.472q0-2-2-2H64.6q-2 0-2 2V62.15q0 2 2 2z" fill="#fff" opacity=".8" stroke="#ccc" id="patch_7"/><path d="M66.6 54.57h20" fill="none" stroke="#1f77b4" stroke-linecap="square" stroke-width="1.5" id="line2d_14"/><text x="94.6" y="58.07" font-family="DejaVu Sans" font-size="10" font-weight="400" id="text_16">arcsin(x)+sqrt(1-x*x)-1</text></g></g></g><defs><clipPath id="pd6b1157c83"><path d="M57.6 41.472h357.12v266.112H57.6z"/></clipPath></defs></svg>
